!!!!SEGMENT: pl-cz--ii-245--001_anonim--partita-b-andante.krn
!!!cenid: 18xx:2486
!!!COM: Anonim
!!!COM-rismid: pe30004985
!!!CDT:
!!!CNT:
!!!OPR: Partita B
!!!OTL: Andante
!!!OMV: 001
!!!PDT:
!!!AGN: Secular; Partita
!!!SMS-siglum: PL-CZ
!!!SMS-shelfmark: II-245
!!!SMS-shelfwork: 001-001 M
!!!SMS-variant:
!!!SMS-altvar:
!!!NIFC-rismid: 1001012549
!!!URL-scan: http://repozytorium.nifc.pl/skany/pl-cz-nut--ii-245
!!!ONB-nifc: UWAGA: części Partity: 1. Andante, 2. Allegro, 3. Adagio, 4. Polo
!!!AIN: 2 clars 2 cor 1 fagot
!!!key:
**kern	**dynam	**kern	**dynam	**kern	**kern	**dynam	**kern
*part5	*part5	*part4	*part4	*part3	*part2	*part2	*part1
*staff5	*	*staff4	*	*staff3	*staff2	*	*staff1
*Icor	*	*Icor	*	*Ifagot	*Iclars	*	*Iclars
*I"Corno 2do in B.	*	*I"Corno 1mo in B.	*	*I"Fagott	*I"Clarinetto 2do	*	*I"Clarinetto 1mo
*I'cor 2 in B|b	*	*I'cor 1 in B|b	*	*I'fag	*I'cl 2	*	*I'cl 1
*clefG2	*	*clefG2	*	*clefF4	*clefG2	*	*clefG2
*ITrd1c2	*	*ITrd1c2	*	*	*ITrd1c2	*	*ITrd1c2
*k[b-e-]	*	*k[b-e-]	*	*k[b-e-]	*k[b-e-]	*	*k[b-e-]
*B-:	*	*B-:	*	*B-:	*B-:	*	*B-:
*M6/8	*	*M6/8	*	*M6/8	*M6/8	*	*M6/8
=1	=1	=1	=1	=1	=1	=1	=1
!LO:TX:a:t=Parthia.	!	!LO:TX:rj:i:a:t=Andante	!	!	!LO:TX:a:t=Parthia 6.	!	!
!LO:TX:rj:i:a:t=Andante	!LO:DY:t=piano	!LO:TX:a:t=Parthia 6.	!LO:DY:b:t=pia&colon;	!	!LO:TX:i:a:t=Andante	!LO:DY:t=p&colon;	!
4b-\	p	4dd\	p	2.ryy	(4b-\	p	2.ryy
8cc\	.	8ee-\	.	.	8cc\)	.	.
4dd\	.	4ff\	.	.	(4dd\	.	.
8b-\	.	8dd\	.	.	8b-\)	.	.
=2	=2	=2	=2	=2	=2	=2	=2
(8b-\L	.	8dd\L	.	2.ryy	(8b-\L	.	2.ryy
8f\	.	8cc\	.	.	8a\	.	.
8dd\J)	.	8ff\J	.	.	8dd\J)	.	.
4cc\	.	4ee-\	.	.	(4cc\	.	.
8b-\	.	8dd\	.	.	8b-\)	.	.
=3	=3	=3	=3	=3	=3	=3	=3
4.B-/	mf	4.b-\	fp	2.ryy	4.b-\	.	2.ryy
8B-/	p	8b-\	.	.	4.b-\	.	.
8r	.	8r	.	.	.	.	.
8r	.	8r	.	.	.	.	.
=4	=4	=4	=4	=4	=4	=4	=4
!	!	!LO:TX:t=P:problem=brak taktu	!	!	!	!	!
8r	.	2.ryy	.	2.ryy	(8a\L	.	2.ryy
8cc\L	.	.	.	.	8cc\	.	.
8b-\J	.	.	.	.	8b-\J)	.	.
4b-\	.	.	.	.	(4b-\	.	.
8f/	.	.	.	.	8a\)	.	.
=5	=5	=5	=5	=5	=5	=5	=5
!	!	!	!	!	!	!LO:DY:t=for	!
4b-\	.	4dd\	.	2.ryy	(4b-\	f	2.ryy
!	!LO:DY:t=for&colon;	!	!LO:DY:t=for&colon;	!	!	!	!
8cc\	f	8ee-\	f	.	8cc\)	.	.
4dd\	.	4ff\	.	.	(4dd\	.	.
8b-\	.	8dd\	.	.	8b-\)	.	.
!LO:LB:g=original	!	!	!	!	!LO:LB;g=original	!	!
=6	=6	=6	=6	=6	=6	=6	=6
8b-\L	.	8dd\L	.	2.ryy	8b-\L	.	2.ryy
8f\	.	8cc\	.	.	8a\	.	.
8dd\J	.	8ff\J	.	.	8dd\J	.	.
4cc\	.	4ee-\	.	.	4cc\	.	.
8b-\	.	8dd\	.	.	8b-\	.	.
!	!	!LO:LB;g=original	!	!	!	!	!
=7	=7	=7	=7	=7	=7	=7	=7
!LO:TX:a:t=1	!	!LO:TX:a:t=1	!	!	!	!	!
2.r	.	2.r	.	2.ryy	(4.f/	.	2.ryy
.	.	.	.	.	8g/)	.	.
.	.	.	.	.	8r	.	.
.	.	.	.	.	8r	.	.
=8	=8	=8	=8	=8	=8	=8	=8
4d/	.	(4b-\	.	2.ryy	(16d/LL	.	2.ryy
.	.	.	.	.	16f/)	.	.
.	.	.	.	.	(16d/	.	.
.	.	.	.	.	16f/)	.	.
8f/	.	8cc\)	.	.	(16e-/	.	.
.	.	.	.	.	16f/JJ)	.	.
4d/	.	4b-\	.	.	4d/	.	.
8r	.	8r	.	.	8r	.	.
=9:|!|:	=9:|!|:	=9:|!|:	=9:|!|:	=9:|!|:	=9:|!|:	=9:|!|:	=9:|!|:
*	*	*2\right	*	*	*	*	*
!	!LO:DY:rj:t=p&colon;	!	!LO:DY:t=p&colon;	!	!	!LO:DY:rj	!
2.f/	p	2.cc\	p	2.ryy	4.a\	p	2.ryy
.	.	.	.	.	4a\	.	.
.	.	.	.	.	8cc\	.	.
=10	=10	=10	=10	=10	=10	=10	=10
*2\right	*	*	*	*	*	*	*
2.b-\	.	2.dd\	.	2.ryy	4b-\	.	2.ryy
.	.	.	.	.	8dd\	.	.
.	.	.	.	.	8d/L	.	.
.	.	.	.	.	8f/	.	.
.	.	.	.	.	8b-/J	.	.
!	!	!	!	!	!LO:LB;g=original	!	!
=11	=11	=11	=11	=11	=11	=11	=11
2.f/	.	2.cc\	.	2.ryy	4a\	.	2.ryy
.	.	.	.	.	8a\	.	.
.	.	.	.	.	(4a\	.	.
.	.	.	.	.	8cc\)	.	.
=12	=12	=12	=12	=12	=12	=12	=12
4f/	.	4ff\	.	2.ryy	(4cc\	.	2.ryy
8f/	.	8ff\	.	.	8b-\)	.	.
4f/	.	4ff\	.	.	4a\	.	.
8r	.	8r	.	.	8r	.	.
!LO:LB:g=original	!	!	!	!	!	!	!
=13	=13	=13	=13	=13	=13	=13	=13
!	!LO:DY:rj:t=for	!	!LO:DY:t=for	!	!	!LO:DY:t=for	!
4b-\	f	4dd\	f	2.ryy	4b-\	f	2.ryy
8cc\	.	8ee-\	.	.	8ccT\	.	.
4dd\	.	4ff\	.	.	4dd\	.	.
8b-\	.	8dd\	.	.	8b-\	.	.
!	!	!LO:LB:g=original	!	!	!	!	!
=14	=14	=14	=14	=14	=14	=14	=14
8b-\L	.	8dd\L	.	2.ryy	8b-\L	.	2.ryy
8f\	.	8cc\	.	.	8a\	.	.
8dd\J	.	8ff\J	.	.	8dd\J	.	.
4cc\	.	4ee-\	.	.	4cc\	.	.
8b-\	.	8dd\	.	.	8b-\	.	.
=15	=15	=15	=15	=15	=15	=15	=15
4.B-/	.	4.b-\	mf	2.ryy	4.b-\	.	2.ryy
8B-/	.	8b-\	p	.	8b-\	.	.
8r	.	8r	.	.	8r	.	.
8r	.	8r	.	.	8r	.	.
!	!	!	!	!	!LO:LB:g=original	!	!
=16	=16	=16	=16	=16	=16	=16	=16
4.b-\	.	4.dd\	.	2.ryy	(8b-\L	.	2.ryy
.	.	.	.	.	8dd\	.	.
.	.	.	.	.	8b-\J)	.	.
4.f/	.	4.cc\	.	.	(8cc\L	.	.
.	.	.	.	.	8a\	.	.
.	.	.	.	.	8e-\J)	.	.
=17	=17	=17	=17	=17	=17	=17	=17
4.f/	.	4.cc\	.	2.ryy	16d/LL	.	2.ryy
.	.	.	.	.	16f/	.	.
.	.	.	.	.	16e-/	.	.
.	.	.	.	.	16f/	.	.
.	.	.	.	.	16e-/	.	.
.	.	.	.	.	16f/JJ	.	.
8d/	.	4b-\	.	.	4d/	.	.
8r	.	.	.	.	.	.	.
8r	.	8r	.	.	8r	.	.
=:|!	=:|!	=:|!	=:|!	=:|!	=:|!	=:|!	=:|!
*-	*-	*-	*-	*-	*-	*-	*-
!!!system-decoration: [(s1,s2,s3)][(s4,s5)]
!!!ENC: Krzysztof Stępień
!!!END: 2021-06-17
!!!EED: Leszek Kubiak
!!!EEV: 2021-06-23
